X:12029
T:Lincolnshire Poacher
R:Jig
C:Trad.
O:England, Lincolnshire
Z:Paul Hardy's Session Tunebook 2015 (see www.paulhardy.net). Creative Commons cc by-nc-sa licenced.
M:6/8
L:1/8
Q:3/8=120
K:D
A|"D"d2d dcB|A2G F2A|d2d "A7"e2c|"D"d3 z2A|d2e f2g|a2f d2e|f2f fed|"A"e3 z2A|
"D"d2e f2g|a2f d2e|f2f fed|"A7"e3 f2e|"D"d2d dcB|A2G F2A|d2d "A7"e2c|"D"d3 d2|]

